!!!COM:	Josquin des Pres
**kern	**kern
*part2	*part1
*staff2	*staff1
*clefF4	*clefF4
*k[b-]	*k[b-]
*M2/1	*M2/1
=1-	=1-
0r	1E
.	1F
=2	=2
1E	2.G
.	4F
1F	1D
=3	=3
2.G	2GG
.	2G
4F	.
1D	2A
.	[2B-
=4	=4
2GG	4B-]
.	4A
2G	2G
2A	2F
[2B-	2D
=5	=5
4B-]	1E
4A	.
2G	.
2F	1D
2D	.
=6	=6
1E	2r
.	2G
1D	2A
.	[2B-
=7	=7
2r	4B-]
.	4A
2G	2G
2A	2F
[2B-	[2G
=8	=8
4B-]	4G]
4A	4A
2G	4B-
.	4c
2F	2A
[2G	[2B-
=9	=9
4G]	4B-]
4A	4A
4B-	2G
4c	.
2A	2F
[2B-	2D
=10	=10
4B-]	2G
4A	.
2G	2B-
2F	1A
2D	.
=11	=11
2G	1G
2B-	.
1A	1r
=12	=12
1G	2E
.	2F
1r	2G
.	2G
=13	=13
2E	2G
2F	2A
2G	2.B-
2G	.
.	4A
=14	=14
2G	2G
2A	2F
2.B-	2G
.	[2d
4A	.
=15	=15
2G	4d]
.	4c
2F	2A
2G	2G
[2d	[2B-
=16	=16
4d]	4B-]
4c	4A
2A	2F
2G	2.G
[2B-	.
.	4F
=17	=17
4B-]	2D
4A	.
2F	2A
2.G	2B-
.	2c
4F	.
=18	=18
2D	2.d
2A	.
.	4c
2B-	2B-
2c	2A
=19	=19
2.d	2B-
.	1G
4c	.
2B-	.
2A	2F
=20	=20
2B-	2G
1G	2B-
.	2.A
2F	.
.	4G
=21	=21
2G	4E
.	4D
2B-	1G
2.A	.
.	2F
4G	.
=22	=22
4E	2G
4D	.
1G	2B-
.	1A
2F	.
=23	=23
0G	0G
==	==
*-	*-
